X:1
T:Dublin Streets
C:Ireland
M:9/8
%Q:240
S: Cynthia Cathcart <clarsair@verizon.net> tradtunes 2010-9-13
K:G
G2A BGE BGE | F2G AFD AFD | G2A BGE BGE | dcB AGF E3 :|
e2f g2a bge | d2e f2g afd | e2f g2a bge | dcB AGF E3 |
e2f g2a bge | d2e f2g afd | gbg faf gfe | dcB AGF E3 |]
